lib/assets/backReturn/default.svg

<svg width="48" height="48" viewBox="0 0 48 48" fill="none" xmlns="http://www.w3.org/2000/svg">
<path d="M28.6434 37.4696L30.113 38.8262L32.8262 35.887L31.3566 34.5304L28.6434 37.4696ZM17 24L15.6434 22.5304C15.2333 22.909 15 23.4418 15 24C15 24.5582 15.2333 25.091 15.6434 25.4696L17 24ZM31.3566 13.4696L32.8262 12.113L30.113 9.17383L28.6434 10.5304L31.3566 13.4696ZM31.3566 34.5304L18.3566 22.5304L15.6434 25.4696L28.6434 37.4696L31.3566 34.5304ZM18.3566 25.4696L31.3566 13.4696L28.6434 10.5304L15.6434 22.5304L18.3566 25.4696Z" fill="#EBEBEB"/>
</svg>

<svg width="48" height="48" viewBox="0 0 48 48" fill="none" xmlns="http://www.w3.org/2000/svg"><path d="m28.643 37.47 1.47 1.356 2.713-2.939-1.47-1.357-2.713 2.94ZM17 24l-1.357-1.47a2 2 0 0 0 0 2.94L17 24Zm14.357-10.53 1.47-1.357-2.714-2.94-1.47 1.357 2.714 2.94Zm0 21.06-13-12-2.714 2.94 13 12 2.714-2.94Zm-13-9.06 13-12-2.714-2.94-13 12 2.714 2.94Z" fill="#EBEBEB"/></svg>
